svg_80x80/connect.svg

<svg viewBox="0 0 80 80" xmlns="http://www.w3.org/2000/svg">
<rect width="100%" height="100%" fill="#009432"/>
<path fill-rule="evenodd" clip-rule="evenodd" d="M46.0354 9.7012C51.8842 13.0284 57.7196 16.3768 63.5469 19.7412C67.4667 22.0064 69.452 25.424 69.4762 29.9197C69.5057 36.6619 69.511 43.4067 69.4735 50.1488C69.4493 54.5886 67.4747 57.9823 63.6086 60.2235C57.7464 63.6172 51.8708 66.987 45.9791 70.3274C42.0539 72.55 38.0644 72.5606 34.1366 70.3407C29.4473 67.6886 24.7765 65.005 20.1056 62.3212C18.8651 61.6085 17.6245 60.8957 16.3837 60.1836C13.3412 58.4401 11.5598 55.797 10.8112 52.422C10.7599 52.189 10.6821 51.961 10.6047 51.7338C10.5689 51.6287 10.5331 51.5237 10.5 51.4185V28.7805C10.5722 28.5013 10.6376 28.2199 10.703 27.9384C10.8465 27.3208 10.99 26.7032 11.2056 26.1108C12.1902 23.3958 13.8644 21.2398 16.4373 19.7812C19.6949 17.935 22.941 16.071 26.1869 14.2071C28.8143 12.6984 31.4417 11.1896 34.0749 9.69055C38.051 7.42542 42.0647 7.44405 46.0354 9.7012ZM17.436 40.7502C17.5703 40.706 17.6799 40.6698 17.7788 40.6145C21.3417 38.6555 24.902 38.6422 28.5105 40.532C28.98 40.7796 29.6454 40.8674 30.1686 40.7662C36.5003 39.5312 41.8876 36.6113 46.1427 31.751C46.4888 31.357 46.7222 30.7448 46.7518 30.2205C46.961 26.5393 48.6164 23.7259 51.7232 21.7322C51.9253 21.6037 52.1207 21.4641 52.3574 21.2951C52.4883 21.2016 52.6322 21.0989 52.7964 20.9843C51.7601 20.3901 50.7396 19.8082 49.7309 19.233C47.4048 17.9065 45.1421 16.6162 42.8964 15.2962C40.9808 14.1702 39.143 14.1702 37.222 15.2802C32.0653 18.2588 26.8959 21.2124 21.7251 24.1668C21.056 24.5491 20.385 24.9325 19.7159 25.3149C18.0766 26.2518 17.1295 27.6679 17.0866 29.5178C17.0249 32.2013 17.0357 34.8879 17.0466 37.5741C17.0498 38.3914 17.0531 39.2091 17.0544 40.0263C17.0544 40.19 17.0978 40.3525 17.1458 40.5323C17.1704 40.6244 17.1962 40.7211 17.2181 40.8248C17.2978 40.7958 17.3699 40.772 17.436 40.7502ZM60.1986 54.7936C62.192 53.6623 63.0801 51.9668 63.0935 49.7629C63.1109 47.2761 63.1053 44.7894 63.0998 42.3012C63.0985 41.7267 63.0972 41.152 63.0962 40.5773C63.0943 40.3135 63.0722 40.0498 63.048 39.7626C63.0371 39.6325 63.0257 39.4975 63.0157 39.3555C62.9215 39.372 62.8375 39.3816 62.7621 39.3902C62.6182 39.4065 62.5053 39.4194 62.412 39.47C58.8142 41.413 55.2486 41.3092 51.6776 39.3822C51.3208 39.1878 50.8083 39.1186 50.4059 39.1932C44.042 40.351 38.652 43.2763 34.3405 48.078C33.9086 48.5598 33.6188 49.3104 33.5705 49.9599C33.2861 53.6969 31.5449 56.4997 28.3334 58.4322C28.1459 58.5445 27.9629 58.6661 27.7431 58.8123C27.6298 58.8877 27.5062 58.9698 27.3676 59.0603C28.2944 59.5923 29.2116 60.1173 30.1212 60.638L30.1361 60.6465C32.5381 62.0215 34.8904 63.368 37.2274 64.7325C39.0947 65.8238 40.9137 65.8531 42.7944 64.7671C48.5869 61.4266 54.382 58.0914 60.1986 54.7936Z" fill="white"/>
</svg>

<svg xmlns="http://www.w3.org/2000/svg" viewBox="0 0 80 80">
  <rect width="100%" height="100%" fill="#009432"/>
  <path fill="#fff" fill-rule="evenodd" d="M46 9.7a3161 3161 0 0 1 17.5 10c4 2.3 6 5.7 6 10.2v20.2c0 4.5-2 7.9-5.9 10.1L46 70.3c-4 2.3-8 2.3-11.9 0l-14-8-3.7-2.1c-3-1.8-4.8-4.4-5.6-7.8l-.2-.7-.1-.3V28.8l.2-.9.5-1.8c1-2.7 2.7-4.9 5.2-6.3l9.8-5.6L34 9.7c4-2.3 8-2.3 12 0Zm-28.6 31h.4c3.5-2 7.1-2 10.7-.2.5.3 1.1.4 1.7.3a27.6 27.6 0 0 0 16-9c.3-.4.5-1 .6-1.6.2-3.7 1.8-6.5 5-8.5l.6-.4.4-.3-3-1.8-6.9-3.9a5.2 5.2 0 0 0-5.7 0l-15.5 8.9-2 1.1a4.8 4.8 0 0 0-2.6 4.2v11l.1.3h.2Zm42.8 14c2-1 2.9-2.7 2.9-5v-7.4a3297.5 3297.5 0 0 1 0-2.5v-.4h-.3a1 1 0 0 0-.4 0c-3.6 2-7.2 2-10.7 0a2 2 0 0 0-1.3-.2c-6.4 1.2-11.7 4-16 8.9-.5.5-.8 1.2-.8 1.9-.3 3.7-2 6.5-5.3 8.4a14.9 14.9 0 0 0-1 .7l2.8 1.5 7.1 4.1c1.9 1.1 3.7 1.2 5.6 0l17.4-10Z" clip-rule="evenodd"/>
</svg>
